**kern
*staff2
*tb8
=1-
*clefG2
*k[f#c#]
*M6/8
8f#/L 8a/L
8d/
8f#/J 8a/J
8e#/L 8g#/L
8d/
8f#/J 8a/J
=2
8a/L 8dd/L
8d/
8g/J 8cc#/J
8g/L 8b/L
8d/ 8b/
8a/J
=3
8g/L
8d/
8f#/J
8c#/L 8e/L
8A/
8d/J
=4
!!linebreak:original
8b/L
8d/
8a/J
8c#/L 8a/L
8A/ 8g/
8d/J 8f#/J
=5
8c#/L 8e/L
8A/
8d/J
8c#/L 8g/L
8A/
8cn/J 8d/J
=6
8r
8d/L 8g/L
8e/J
8r
8c#/L 8e/L 8g/L
8f#/J
=7
!!linebreak:original
8r
8d#/L 8f#/L
8B/J
8r
8dn/L 8e/L
8B/J
=8
8r
8c#/L 8e/L
8A/J
8r
8d/L 8f#/L
8A/J
=9
8f#/L 8a/L
8d/
8g/J
8f#/L 8ccn/L
8d/
8g/J 8b/J
=10
!!linebreak:original
8dd\L
8cc#\
8ccn\
8b\
8cc\
8a#\J
=11
4b\
.
8r
4.A/ 4.d/
.
.
=12
8d/L
8F#/
8A/
8d/
8f#/
8a/J
=13
!!linebreak:original
8e#/L 8g#/L
8d/
8f#/J 8a/J
8e#/L 8b/L
8d/
8e#/J 8g#/J
=14
8f#/L 8a/L
8d/
8a/J 8ccn/J
8g/L 8b/L
8d/
8g/J 8cc#/J
=15
8f#\L 8dd\L
8a\
8ff#\J
8g\L 8ff#\L
8ee\
8cc#\J
=16
4.g/ 4.cc#/
.
.
4.f#/ 4.dd/
.
.
==
*-
